X: 19714
T: Jenny Lind, The
R: polka
M: 2/4
K: Dmajor
|:FA GB|Af f/a/f/d/|Ae e/f/e/c/|Ad d/c/B/A/|
FA GB|Af f/a/f/d/|Ae e/f/g/e/|fd d2:|
|:dB B/c/d/B/|AF F2|AE E/F/G/E/|AD DF/A/|
dB B/c/d/B/|AF FA|dc/d/ e/f/g/e/|1 fd d>c:|2 fd d2||

